X: 8804
T: Cuddy Clauder
R: three-two
M: 3/2
K: Gmajor
L:1/4
M:6/4
B>cd dB/c/d/B/|dg2 B2G|B>c d dB/c/d/B/|Af2 A2e|
B>c dd B/c/d/B/|gd eg-g/d/B|c/B/A/B/c/A/ d/c/B/c/d/B/|1 Af2A2e:|2 Af2A2f||
|:g>d eg dB|(3d/e/f/ g2 B2 G|g>d eg dB|Af2A2f|
g>de gdB|de/f/g/f/ gdB|c/B/A/B/c/A/ d/c/B/c/d/B/|1 Af2A2f:|2 Af2A2B||
|:GB/c/d/B/ dB/c/d/B/|dg2 B2G|B>cd dB/c/d/B/|Af2A2e|
B>cd dB/c/d/B/|gde g-g/d/B|c/B/A/B/c/A/ d/c/B/c/d/B/|1 Af2A2B:|2 Af2A2f||
|:g>de gdB|(3d/e/f/g2 B2G|g>d eg dB|Af-fA-Af|
g>de gdB|de/f/g/f/ gdB|c/B/A/B/c/A/ d/c/B/c/d/B/|1 Af2A2f:|2 Af2A3||

